X:1
T:The Shanty Man
M:4/4
L:1/4
K:C
 G2| A2 A G| c2 B3/2- G/2| A G E- D| C2 D- E| F- D G ^F| D2 D- C| D2 z2|\
 z2 G2| A2 A G| c2 B2| A2 D C| C2 D E| F D G- ^F| D2 D- C| D2 z2| z4|\
 D3/2 E/2 F G| A2 c2| d- c A- G| G2 F3/2 G/2| A2 d2| d- c A- B| c2 z2|\
 z2 c3/2 c/2| d2 B3/2 G/2| c2 B2| A2 D3/2 C/2| C2 D3/2 E/2| F- D G2|\
 E D3| D4|

